X:14951
T:Schottis efter Luringen och Spel-Bengten, #4
R:Schottis
Z:Transcribed by Henrik Norbeck.
K:Gmix
M:C|
GABc d2d2|fece d2d2|efed cdcB|B2G2 E4|
GABc d2d2|fece d2d2|efed cBEG|B2A2 A4:|
|:agac' a2g2|f2e2 d4|efed cdcB|B2G2 E4|
agac' a2g2|f2e2 d4|efed cBEG|B2A2 A4:|
